Newaita-dark/.DP/32/mic-volume-muted.svg

<?xml version="1.0" encoding="UTF-8"?>
<svg xmlns="http://www.w3.org/2000/svg" xmlns:xlink="http://www.w3.org/1999/xlink" width="32pt" height="32pt" viewBox="0 0 32 32" version="1.1">
<g id="surface1">
<path style=" stroke:none;fill-rule:nonzero;fill:rgb(74.117649%,74.117649%,74.117649%);fill-opacity:1;" d="M 10.585938 28.035156 L 21.167969 28.035156 L 21.167969 30.679688 L 10.585938 30.679688 Z M 10.585938 28.035156 "/>
<path style=" stroke:none;fill-rule:nonzero;fill:rgb(74.117649%,74.117649%,74.117649%);fill-opacity:1;" d="M 7.9375 16.125 L 7.9375 24.726562 C 7.9375 25.824219 8.824219 26.710938 9.921875 26.710938 L 21.832031 26.710938 C 22.929688 26.710938 23.816406 25.824219 23.816406 24.726562 L 23.816406 16.125 L 22.078125 16.125 C 21.144531 18.644531 18.726562 20.425781 15.875 20.425781 C 13.027344 20.425781 10.609375 18.644531 9.675781 16.125 Z M 7.9375 16.125 "/>
<path style=" stroke:none;fill-rule:nonzero;fill:rgb(74.117649%,74.117649%,74.117649%);fill-opacity:1;" d="M 9.921875 1.574219 C 8.824219 1.574219 7.9375 2.457031 7.9375 3.558594 L 7.9375 11.496094 L 9.675781 11.496094 C 10.609375 8.980469 13.027344 7.195312 15.875 7.195312 C 18.726562 7.195312 21.144531 8.980469 22.078125 11.496094 L 23.816406 11.496094 L 23.816406 3.558594 C 23.816406 2.457031 22.929688 1.574219 21.832031 1.574219 Z M 9.921875 1.574219 "/>
<path style=" stroke:none;fill-rule:nonzero;fill:rgb(74.117649%,74.117649%,74.117649%);fill-opacity:1;" d="M 7.9375 12.820312 C 7.570312 12.820312 7.277344 13.113281 7.277344 13.480469 L 7.277344 14.140625 C 7.277344 14.507812 7.570312 14.804688 7.9375 14.804688 L 9.335938 14.804688 C 9.285156 14.480469 9.261719 14.148438 9.261719 13.8125 C 9.261719 13.472656 9.285156 13.140625 9.335938 12.820312 Z M 22.417969 12.820312 C 22.464844 13.140625 22.492188 13.472656 22.492188 13.8125 C 22.492188 14.148438 22.464844 14.480469 22.417969 14.804688 L 23.816406 14.804688 C 24.179688 14.804688 24.476562 14.507812 24.476562 14.140625 L 24.476562 13.480469 C 24.476562 13.113281 24.179688 12.820312 23.816406 12.820312 Z M 22.417969 12.820312 "/>
<path style=" stroke:none;fill-rule:nonzero;fill:rgb(93.725491%,32.549021%,31.37255%);fill-opacity:1;" d="M 11.902344 11.707031 L 14.003906 13.8125 L 11.902344 15.917969 L 13.773438 17.789062 L 15.875 15.683594 L 17.980469 17.789062 L 19.851562 15.917969 L 17.746094 13.8125 L 19.851562 11.707031 L 17.980469 9.835938 L 15.875 11.941406 L 13.773438 9.835938 Z M 11.902344 11.707031 "/>
</g>
</svg>

<svg xmlns="http://www.w3.org/2000/svg" width="32pt" height="32pt" viewBox="0 0 32 32"><path d="M10.586 28.035h10.582v2.645H10.586zm0 0M7.938 16.125v8.602c0 1.097.886 1.984 1.984 1.984h11.91a1.982 1.982 0 0 0 1.984-1.984v-8.602h-1.738a6.596 6.596 0 0 1-6.203 4.3 6.595 6.595 0 0 1-6.2-4.3zm0 0M9.922 1.574A1.98 1.98 0 0 0 7.937 3.56v7.937h1.739a6.6 6.6 0 0 1 6.199-4.3 6.601 6.601 0 0 1 6.203 4.3h1.738V3.56a1.98 1.98 0 0 0-1.984-1.985zm0 0M7.938 12.82a.657.657 0 0 0-.66.66v.66a.66.66 0 0 0 .66.665h1.398a6.415 6.415 0 0 1-.074-.992c0-.34.023-.672.074-.993zm14.48 0c.047.32.074.653.074.992 0 .336-.027.668-.074.993h1.398c.364 0 .66-.297.66-.664v-.66a.66.66 0 0 0-.66-.66zm0 0" fill="#bdbdbd"/><path d="M11.902 11.707l2.102 2.105-2.102 2.106 1.871 1.871 2.102-2.105 2.105 2.105 1.872-1.871-2.106-2.105 2.106-2.106-1.872-1.871-2.105 2.105-2.102-2.105zm0 0" fill="#ef5350"/></svg>
